web-components-icons/ea00-chart/SVG/column-range.svg

<?xml version="1.0" encoding="utf-8"?>
<!-- Generator: Adobe Illustrator 24.2.0, SVG Export Plug-In . SVG Version: 6.00 Build 0)  -->
<svg version="1.1" id="Layer_1" xmlns="http://www.w3.org/2000/svg" xmlns:xlink="http://www.w3.org/1999/xlink" x="0px" y="0px"
	 width="512px" height="512px" viewBox="0 0 512 512" xml:space="preserve">
<path d="M480,448v32H32V32h32v416H480z M256,128h-96v224h96V128 M288,96v288H128V96H288z M480,32H320v224h160V32z"/>
</svg>

<svg xmlns="http://www.w3.org/2000/svg" viewBox="0 0 512 512"><title>column-range</title><g id="column_range" data-name="column range"><path d="M480,448v32H32V32H64V448ZM256,128H160V352h96V128m32-32V384H128V96ZM480,32H320V256H480Z"/></g></svg>
